X:1
T:Come, Lord, and Let Thy Power
T:Come, Lord, and Let Thy Power
T:William James Kirkpatrick
T:Frances Jane (Fanny) Crosby, 1885
T:Public Domain Courtesy of the Cyber Hymnal™
C:William James Kirkpatrick
Z:Public Domain
Z:Courtesy of the Cyber Hymnal™
%%score ( 1 2 ) ( 3 4 )
L:1/8
Q:1/4=105
M:3/4
K:D
V:1 treble 
V:2 treble 
V:3 bass 
V:4 bass 
V:1
 [FA]2 | [FA]3 [DF] [A,D][A,E] | [DF]4 [FA]2 | [FA]3 [DF] [A,E]D | [CE]4 [CE]2 | %5
w: 1.~Come,|Lord, and let Thy|power On|each and all de-|scend, While|
w: 2.~Come,|Lord, and let Thy|power Each|thought of self re-|move; And|
w: 3.~Our|wait- ing, long- ing|eyes, Are|look- ing up to|Thee, O|
w: 4.~Come,|Lord, Thy power a-|lone The|work of grace can|do; Now|
w: 5.~Be|ours, with fer- vent|zeal, Thy|blood- stained cross to|bear; Till|
 [DF][EG] [FA]2 [FA]2 | [GB][Gc] [Fd]2 [DF]2 | [CE]3 [CA] [Ec][DB] | [CA]4 ||"^Refrain" [GA]2 | %10
w: ga- thered in Thy|ho- ly name, Be-|fore Thy throne we|bend.||
w: may we feel as|ne’er be- fore Thy|pure and per- fect|love.||
w: may we, in Thy|smil- ing face, Our|Fa- ther’s glo- ry|see.|Re-|
w: let it con- se-|crate to Thee Our|hearts and lives a-|new.||
w: at Thy feet we|lay it down, A|crown of life to|wear.||
 [Fd]3 [Fd] [Gc][Gc] | [Ad]4 [FA]2 | [GB]3 [Gd] [Gc][GB] | [FA]4 [EG]2 | [DF][EG] [FA]2 [Fd]2 | %15
w: |||||
w: |||||
w: fresh our wait- ing|souls, Our|fee- ble faith in-|spire, And|from Thine al- tar|
w: |||||
w: |||||
 [DF][EG] [FA]2 [GB]2 | [FA]3 D [DF][CE] | D4 |] %18
w: |||
w: |||
w: touch our hearts With|coals of sac- red|fire.|
w: |||
w: |||
V:2
 x2 | x6 | x6 | x5 D | x6 | x6 | x6 | x6 | x4 || x2 | x6 | x6 | x6 | x6 | x6 | x6 | x3 D x2 | D4 |] %18
V:3
 [D,D]2 | [D,D]3 [D,A,] [D,F,][D,G,] | [D,A,]4 [D,D]2 | [D,D]3 [D,A,] [C,A,][B,,^G,] | %4
 [A,,A,]4 [A,,A,]2 | [D,A,][D,A,] [D,D]2 [D,D]2 | [G,D][E,A,] [D,A,]2 [D,A,]2 | %7
 [E,A,]3 [E,A,] [E,A,][E,^G,] | [A,,A,]4 || A,2 | [D,A,]3 [D,A,] [E,A,][E,A,] | [F,A,]4 [D,D]2 | %12
 [G,D]3 [G,B,] [G,C][G,D] | [D,D]4 [D,A,]2 | [D,A,][D,A,] [D,D]2 [D,A,]2 | %15
 [D,A,][D,A,] [D,D]2 [G,,D]2 | [A,,D]3 [A,,F,] [A,,A,][A,,G,] | [D,F,]4 |] %18
V:4
 x2 | x6 | x6 | x6 | x6 | x6 | x6 | x6 | x4 || A,2 | x6 | x6 | x6 | x6 | x6 | x6 | x6 | x4 |] %18

